assets/icons/textSvg.svg

<?xml version="1.0" encoding="UTF-8"?>
<svg xmlns="http://www.w3.org/2000/svg" width="81" height="15" viewBox="0 0 81 15" fill="none"> <path d="M1.08 3.996H6.984V12H6.456V4.476H1.608V12H1.08V3.996ZM9.9105 5.088C10.7105 4.288 11.6945 3.888 12.8625 3.888C14.0305 3.888 15.0145 4.288 15.8145 5.088C16.6145 5.888 17.0145 6.864 17.0145 8.016C17.0145 9.168 16.6145 10.144 15.8145 10.944C15.0145 11.736 14.0305 12.132 12.8625 12.132C11.6945 12.132 10.7105 11.736 9.9105 10.944C9.1105 10.144 8.7105 9.168 8.7105 8.016C8.7105 6.864 9.1105 5.888 9.9105 5.088ZM10.2945 10.608C10.9825 11.304 11.8385 11.652 12.8625 11.652C13.8865 11.652 14.7425 11.304 15.4305 10.608C16.1185 9.904 16.4625 9.04 16.4625 8.016C16.4625 6.984 16.1185 6.12 15.4305 5.424C14.7425 4.72 13.8865 4.368 12.8625 4.368C11.8385 4.368 10.9825 4.72 10.2945 5.424C9.6065 6.12 9.2625 6.984 9.2625 8.016C9.2625 9.04 9.6065 9.904 10.2945 10.608ZM19.3882 3.996H23.9002V11.52H24.8122V13.608H24.3082V12H18.3322V13.608H17.8282V11.52C18.1002 11.52 18.3482 11.42 18.5722 11.22C18.7962 11.02 18.9722 10.76 19.1002 10.44C19.2922 9.952 19.3882 9.252 19.3882 8.34V3.996ZM19.9162 4.476V8.34C19.9162 9.324 19.8202 10.068 19.6282 10.572C19.4922 10.932 19.2882 11.248 19.0162 11.52H23.3722V4.476H19.9162ZM27.6244 8.196H26.5924V12H26.0644V3.996H27.6124C28.2924 3.996 28.8524 4.18 29.2924 4.548C29.7324 4.908 29.9524 5.42 29.9524 6.084C29.9524 6.74 29.7404 7.256 29.3164 7.632C28.8924 8.008 28.3284 8.196 27.6244 8.196ZM26.5924 4.476V7.716H27.6484C28.1764 7.716 28.6004 7.572 28.9204 7.284C29.2404 6.988 29.4004 6.592 29.4004 6.096C29.4004 5.592 29.2364 5.196 28.9084 4.908C28.5884 4.62 28.1404 4.476 27.5644 4.476H26.5924ZM32.1878 5.088C32.9878 4.288 33.9718 3.888 35.1398 3.888C36.3078 3.888 37.2918 4.288 38.0918 5.088C38.8918 5.888 39.2918 6.864 39.2918 8.016C39.2918 9.168 38.8918 10.144 38.0918 10.944C37.2918 11.736 36.3078 12.132 35.1398 12.132C33.9718 12.132 32.9878 11.736 32.1878 10.944C31.3878 10.144 30.9878 9.168 30.9878 8.016C30.9878 6.864 31.3878 5.888 32.1878 5.088ZM32.5718 10.608C33.2598 11.304 34.1158 11.652 35.1398 11.652C36.1638 11.652 37.0198 11.304 37.7078 10.608C38.3958 9.904 38.7398 9.04 38.7398 8.016C38.7398 6.984 38.3958 6.12 37.7078 5.424C37.0198 4.72 36.1638 4.368 35.1398 4.368C34.1158 4.368 33.2598 4.72 32.5718 5.424C31.8838 6.12 31.5398 6.984 31.5398 8.016C31.5398 9.04 31.8838 9.904 32.5718 10.608ZM41.0175 12V3.996H44.8695V4.476H41.5455V7.44H42.9375C44.7775 7.44 45.6975 8.172 45.6975 9.636C45.6975 10.3 45.4815 10.86 45.0495 11.316C44.6255 11.772 43.9775 12 43.1055 12H41.0175ZM41.5455 7.92V11.52H42.8895C43.6975 11.52 44.2815 11.344 44.6415 10.992C44.9775 10.672 45.1455 10.22 45.1455 9.636C45.1455 8.94 44.8695 8.448 44.3175 8.16C43.9975 8 43.4895 7.92 42.7935 7.92H41.5455ZM47.9557 3.996V7.392H52.8037V3.996H53.3317V12H52.8037V7.872H47.9557V12H47.4277V3.996H47.9557ZM59.3302 3.996V4.476H56.0182V7.38H59.2582V7.86H56.0182V11.52H59.3302V12H55.4902V3.996H59.3302ZM64.8966 3.996V4.476H61.5846V7.38H64.8246V7.86H61.5846V11.52H64.8966V12H61.0566V3.996H64.8966Z" fill="#31373E"/> <line x1="72.3232" y1="12.3388" x2="80.8085" y2="3.85357" stroke="#31373E" stroke-width="0.5"/> <line x1="80.75" y1="12" x2="80.75" y2="4" stroke="#31373E" stroke-width="0.5"/> <line x1="73" y1="3.75" x2="81" y2="3.75" stroke="#31373E" stroke-width="0.5"/> </svg>

<svg xmlns="http://www.w3.org/2000/svg" width="81" height="15" fill="none"><path d="M1.08 3.996h5.904V12h-.528V4.476H1.608V12H1.08V3.996Zm8.83 1.092c.8-.8 1.784-1.2 2.953-1.2 1.168 0 2.152.4 2.952 1.2.8.8 1.2 1.776 1.2 2.928s-.4 2.128-1.2 2.928c-.8.792-1.784 1.188-2.952 1.188s-2.152-.396-2.952-1.188c-.8-.8-1.2-1.776-1.2-2.928s.4-2.128 1.2-2.928Zm.384 5.52c.688.696 1.544 1.044 2.569 1.044 1.024 0 1.88-.348 2.568-1.044.688-.704 1.031-1.568 1.031-2.592 0-1.032-.343-1.896-1.031-2.592-.688-.704-1.544-1.056-2.568-1.056s-1.88.352-2.569 1.056c-.688.696-1.032 1.56-1.032 2.592 0 1.024.345 1.888 1.032 2.592Zm9.094-6.612H23.9v7.524h.912v2.088h-.504V12h-5.976v1.608h-.504V11.52c.272 0 .52-.1.744-.3.224-.2.4-.46.528-.78.192-.488.288-1.188.288-2.1V3.996Zm.528.48V8.34c0 .984-.096 1.728-.288 2.232a2.65 2.65 0 0 1-.612.948h4.356V4.476h-3.456Zm7.708 3.72h-1.032V12h-.528V3.996h1.548c.68 0 1.24.184 1.68.552.44.36.66.872.66 1.536 0 .656-.212 1.172-.636 1.548-.424.376-.988.564-1.692.564Zm-1.032-3.72v3.24h1.056c.528 0 .952-.144 1.272-.432.32-.296.48-.692.48-1.188 0-.504-.164-.9-.492-1.188-.32-.288-.768-.432-1.344-.432h-.972Zm5.596.612c.8-.8 1.784-1.2 2.952-1.2s2.152.4 2.952 1.2c.8.8 1.2 1.776 1.2 2.928s-.4 2.128-1.2 2.928c-.8.792-1.784 1.188-2.952 1.188s-2.152-.396-2.952-1.188c-.8-.8-1.2-1.776-1.2-2.928s.4-2.128 1.2-2.928Zm.384 5.52c.688.696 1.544 1.044 2.568 1.044s1.88-.348 2.568-1.044c.688-.704 1.032-1.568 1.032-2.592 0-1.032-.344-1.896-1.032-2.592-.688-.704-1.544-1.056-2.568-1.056s-1.88.352-2.568 1.056c-.688.696-1.032 1.56-1.032 2.592 0 1.024.344 1.888 1.032 2.592ZM41.017 12V3.996h3.852v.48h-3.324V7.44h1.392c1.84 0 2.76.732 2.76 2.196 0 .664-.216 1.224-.648 1.68-.423.456-1.072.684-1.944.684h-2.087Zm.528-4.08v3.6h1.344c.808 0 1.392-.176 1.752-.528.337-.32.505-.772.505-1.356 0-.696-.276-1.188-.828-1.476-.32-.16-.828-.24-1.524-.24h-1.248Zm6.41-3.924v3.396h4.849V3.996h.528V12h-.528V7.872h-4.848V12h-.528V3.996h.528Zm11.375 0v.48h-3.312V7.38h3.24v.48h-3.24v3.66h3.312V12h-3.84V3.996h3.84Zm5.567 0v.48h-3.312V7.38h3.24v.48h-3.24v3.66h3.312V12h-3.84V3.996h3.84Z" fill="#31373E"/><path stroke="#31373E" stroke-width=".5" d="m72.323 12.339 8.485-8.485M80.75 12V4M73 3.75h8"/></svg>
